!!!OTL: HAB OFT IM KREISE DER LIEBEN
!!!ARE: Europa, Mitteleuropa, Deutschland
!!!SCT: F0814
!!!YEM: Copyright 1995, estate of Helmut Schaffrath.
**kern
*ICvox
*Ivox
*M4/4
*k[b-e-]
*B-:
{4f
=1
4dd
4dd
4ee-
8dd
8dd
=2
4.cc
8dd
4cc}
{8dd
8cc
=3
4b-
8b-
8b-
8cc
8b-
8a
8b-
=4
2cc
4r}
{4cc
=5
4cc
4cc
4dd
8dd
8dd
=6
2ff
4ee-}
{8dd
8cc
=7
4b-
8b-
8b-
8a
8b-
8cc
8dd
=8
2b-
4r}
{4b-
=9
4b-
4b-
4ee-
8dd
8dd
=10
4.cc
8dd
4cc}
{4dd
=11
4ee-
8ee-
8dd
4cc
8.cc
16dd
=12
2cc
4r}
{4cc
=13
2ff
4een
4r
=14
2ee-
4dd
8r}
{8dd
=15
8ff
8ee-
8dd
8cc
4b-
4a
=16
2b-
4r}
==
!!!AGN: Geselligkeits -, Moral - Lied
!!!ONB: ESAC (Essen Associative Code) Database: FINK
!!!AMT: simple quadruple
!!!AIN: vox
!!!EED: Helmut Schaffrath
!!!EEV: 1.0
*-
